frontend/public/svg/objects/balloon-2.svg

<svg width="164" height="136" viewBox="0 0 164 136" fill="none" xmlns="http://www.w3.org/2000/svg">
<g clip-path="url(#clip0)">
<path d="M124.022 29.716C128.175 28.4862 132.557 28.241 136.821 28.9998C142.969 30.0858 148.53 33.322 152.512 38.1303C161.269 48.5437 164.172 60.6938 162.627 73.9994C162.086 78.6548 159.894 82.7746 157.251 86.5932C153.175 92.3906 148.257 97.5494 142.662 101.9C139.203 104.606 135.297 106.683 131.119 108.038C130.073 108.386 129.036 108.759 128.017 109.115C129.64 115.539 128.141 117.325 121.717 116.886C120.373 116.795 119.022 116.709 117.678 116.743C115.128 116.809 112.696 116.653 110.959 113.519C110.036 115.48 109.286 116.825 108.763 118.252C108.235 119.728 107.817 121.243 107.511 122.781C106.47 127.855 103.301 131.35 99.1812 134.142C97.329 135.396 95.3593 135.5 94.5901 134.493C93.7664 133.416 94.2238 131.835 95.9165 130.068C96.8479 129.094 97.8035 128.144 98.7828 127.217C100.855 125.3 102.349 122.839 103.093 120.116C104.382 115.34 106.375 111.059 111.47 108.218C105.48 105.887 100.356 101.764 96.798 96.4126C94.6321 97.5711 92.6821 98.6127 90.5385 99.76C90.9165 100.865 91.3366 101.87 91.605 102.915C92.6125 106.838 90.4492 109.569 86.3911 109.604C85.1093 109.616 83.3503 108.743 82.7012 110.236C81.9989 111.86 81.7377 113.641 81.9438 115.399C82.2995 117.925 83.4061 120.337 83.9377 122.851C84.3735 124.814 84.5619 126.825 84.4989 128.836C84.3656 130.281 83.9325 131.682 83.2262 132.95C81.9838 135.371 80.3167 136.26 78.7697 135.641C77.2739 135.045 76.8014 133.361 77.8935 130.617C79.1845 127.377 78.8209 124.262 77.9696 121.06C76.9556 117.246 76.126 113.408 77.648 109.312C76.8552 109.016 76.1489 108.792 75.4769 108.493C72.6546 107.232 72.2234 104.773 74.5153 102.651C75.5714 101.673 76.7948 100.876 77.904 100.026L61.9547 93.087L52.1143 109.024C53.1185 110.919 54.1981 112.568 56.3148 113.561C58.4486 114.562 59.5164 116.642 60.0631 118.904C60.3402 119.993 60.5263 121.103 60.6191 122.222C60.7097 123.683 61.1291 125.106 61.8459 126.382C62.5628 127.658 63.5587 128.756 64.7592 129.592C66.061 130.653 67.2759 131.816 68.3937 133.068C69.4878 134.217 69.0841 135.496 67.5247 135.663C66.4102 135.78 65.2837 135.696 64.1993 135.414C61.7059 134.704 59.4982 133.229 57.8879 131.198C56.2775 129.167 55.3461 126.68 55.2247 124.091C55.1394 122.188 54.9483 120.292 54.7429 118.4C54.6023 117.946 54.3933 117.517 54.1232 117.127C49.9043 119.543 45.394 119.025 41.013 118.676C37.4687 118.394 36.4691 115.65 38.4046 112.567C38.6993 112.097 39.0577 111.667 39.5513 110.996C38.8214 110.572 38.2189 110.157 37.5638 109.854C33.8962 108.161 30.1702 106.59 26.5485 104.806C4.35841 93.8713 -2.93025 70.9198 2.4911 50.0433C4.43583 42.5526 8.04182 36.0345 13.8649 30.9439C20.8384 24.8472 28.8352 21.9574 38.1585 24.4174C39.8722 24.8696 41.4994 25.6519 43.3982 26.3699C43.8372 25.4871 44.2927 24.632 44.6964 23.7526C49.5146 13.259 57.3138 6.17568 68.4836 2.94649C75.7768 0.837023 83.1593 -0.152634 90.7813 0.672383C103.772 2.07891 113.139 8.79251 119.463 19.9752C121.154 22.9898 122.413 26.2479 124.022 29.716ZM118.437 49.966C118.327 37.8454 116.226 29.9588 112.182 22.6839C107.671 14.5696 100.899 9.51324 91.462 8.215C83.4245 7.10907 75.8096 8.56739 68.3773 11.431C62.8802 13.572 58.266 17.5055 55.2817 22.5946C51.032 29.5289 49.502 37.1772 49.8538 45.1806C50.2424 54.0228 52.7312 62.3898 55.9788 70.5949C60.7142 82.5573 68.8925 90.6277 81.3944 94.1863C82.7209 94.5644 83.7106 94.59 84.827 93.8063C91.8138 88.9028 98.9869 84.231 104.828 77.896C113.082 68.9462 118.718 58.8613 118.437 49.9653V49.966ZM41.6396 32.7647C39.5686 31.5334 37.2216 30.8419 34.8138 30.7537C27.8802 30.5752 22.4899 33.6816 18.1357 38.7879C11.7771 46.2445 10.0574 55.2547 10.3718 64.6318C10.7814 76.8518 15.3561 87.2928 25.998 94.0098C32.4006 98.0508 39.38 101.179 46.1823 104.761C50.629 99.5145 55.0073 94.7521 57.7876 88.9317C44.4679 71.6812 39.4186 54.1527 41.6396 32.7647ZM101.755 93.0069C102.553 93.9166 103.266 94.7665 104.015 95.5784C107.001 98.803 110.871 100.553 114.84 102.203C116.387 102.845 117.787 103.108 119.369 102.531C120.327 102.212 121.303 101.949 122.292 101.743C130.993 99.7639 138.913 95.2483 145.048 88.7683C152.017 81.4599 156.789 73.5268 155.209 62.8715C154.047 55.0414 151.796 47.729 146.3 41.8213C140.714 35.8126 133.754 34.0768 125.655 35.5391C126.01 38.8142 126.474 41.7931 126.632 44.7886C127.414 59.6934 121.755 72.1984 111.966 83.0319C108.896 86.4271 105.414 89.4541 101.755 93.0069Z" fill="black"/>
</g>
<defs>
<clipPath id="clip0">
<rect width="163.428" height="135.862" fill="white" transform="translate(0.192383 0.0187988)"/>
</clipPath>
</defs>
</svg>

<svg xmlns="http://www.w3.org/2000/svg" width="164" height="136" fill="none" viewBox="0 0 164 136"><g clip-path="url(#a)"><path fill="#000" d="M124.022 29.716A27.9 27.9 0 0 1 136.821 29a26.32 26.32 0 0 1 15.691 9.13c8.757 10.414 11.66 22.564 10.115 35.87-.541 4.655-2.733 8.775-5.376 12.593a71.4 71.4 0 0 1-14.589 15.307 37.5 37.5 0 0 1-11.543 6.138c-1.046.348-2.083.721-3.102 1.077 1.623 6.424.124 8.21-6.3 7.771-1.344-.091-2.695-.177-4.039-.143-2.55.066-4.982-.09-6.719-3.224-.923 1.961-1.673 3.306-2.196 4.733a32 32 0 0 0-1.252 4.529c-1.041 5.074-4.21 8.569-8.33 11.361-1.852 1.254-3.822 1.358-4.59.351-.825-1.077-.367-2.658 1.326-4.425a81 81 0 0 1 2.866-2.851 15.1 15.1 0 0 0 4.31-7.101c1.289-4.776 3.282-9.057 8.377-11.898a31.2 31.2 0 0 1-14.672-11.805l-6.26 3.347c.379 1.105.799 2.11 1.067 3.155 1.007 3.923-1.156 6.654-5.214 6.689-1.282.012-3.04-.861-3.69.632a10.06 10.06 0 0 0-.757 5.163c.355 2.526 1.462 4.938 1.994 7.452.436 1.963.624 3.974.56 5.985a10.4 10.4 0 0 1-1.272 4.114c-1.242 2.421-2.91 3.31-4.456 2.691-1.496-.596-1.969-2.28-.876-5.024 1.29-3.24.927-6.355.076-9.557-1.014-3.814-1.844-7.652-.322-11.748-.793-.296-1.5-.52-2.171-.819-2.822-1.261-3.254-3.72-.962-5.842 1.056-.978 2.28-1.775 3.389-2.625l-15.95-6.939-9.84 15.937c1.005 1.895 2.084 3.544 4.2 4.537 2.135 1.001 3.202 3.081 3.75 5.343a20 20 0 0 1 .555 3.318 9.73 9.73 0 0 0 4.14 7.37 32 32 0 0 1 3.635 3.476c1.094 1.149.69 2.428-.87 2.595a9.3 9.3 0 0 1-3.325-.249 12.37 12.37 0 0 1-8.975-11.323c-.085-1.903-.276-3.799-.481-5.691a4.7 4.7 0 0 0-.62-1.273c-4.219 2.416-8.729 1.898-13.11 1.549-3.544-.282-4.544-3.026-2.608-6.109.294-.47.653-.9 1.146-1.571-.73-.424-1.332-.839-1.987-1.142-3.668-1.693-7.394-3.264-11.015-5.048C4.358 93.871-2.931 70.92 2.49 50.043c1.945-7.49 5.55-14.008 11.374-19.1 6.973-6.096 14.97-8.986 24.293-6.526 1.714.453 3.341 1.235 5.24 1.953.44-.883.895-1.738 1.298-2.617 4.82-10.494 12.619-17.577 23.789-20.807C75.777.837 83.159-.153 90.78.672c12.991 1.407 22.358 8.12 28.682 19.303 1.691 3.015 2.95 6.273 4.559 9.741m-5.585 20.25c-.11-12.12-2.211-20.007-6.255-27.282-4.511-8.114-11.283-13.17-20.72-14.469-8.038-1.106-15.652.352-23.085 3.216a26.2 26.2 0 0 0-13.095 11.164c-4.25 6.934-5.78 14.582-5.428 22.586.388 8.842 2.877 17.209 6.125 25.414 4.735 11.962 12.914 20.033 25.415 23.591 1.327.378 2.317.404 3.433-.38 6.987-4.903 14.16-9.575 20.001-15.91 8.254-8.95 13.89-19.035 13.609-27.93M41.64 32.765a14.4 14.4 0 0 0-6.826-2.011c-6.934-.179-12.324 2.928-16.678 8.034-6.359 7.457-8.079 16.467-7.764 25.844.41 12.22 4.984 22.66 15.626 29.378 6.403 4.04 13.382 7.169 20.184 10.751 4.447-5.246 8.825-10.009 11.606-15.83-13.32-17.25-18.37-34.778-16.148-56.166m60.115 60.242c.798.91 1.511 1.76 2.26 2.571 2.986 3.225 6.856 4.975 10.825 6.625 1.547.642 2.947.905 4.529.328a26 26 0 0 1 2.923-.788 45.1 45.1 0 0 0 22.756-12.975c6.969-7.308 11.741-15.241 10.161-25.897-1.162-7.83-3.413-15.142-8.909-21.05-5.586-6.008-12.546-7.744-20.645-6.282.355 3.275.819 6.254.977 9.25.782 14.904-4.877 27.41-14.666 38.243-3.07 3.395-6.552 6.422-10.211 9.975"/></g><defs><clipPath id="a"><path fill="#fff" d="M.192.019H163.62V135.88H.192z"/></clipPath></defs></svg>
